X:163
T:Wildboar's Maggot
M:C
L:1/8
B:Thompson's Compleat Collection of 200 Favourite Country Dances, vol. 1 (London, 1757)
Z:Transcribed and edited by Flynn Titford-Mock, 2007
Z:abc's:AK/Fiddler's Companion
K:Bb
FE|DF (B2 B)dfd|"tr"c>B"tr"c>d c2 de|f3 g "tr"fd"tr"cB|ABcd c2 FE|DF (B2 "tr"B)dfd|
=efga b2 ag|af=eg c2 (f=e)|f2 F4::cB|ABcd e2 dc|gecf {B}A2 d^f|
"tr"g3 a bg^fa|"tr"d2 ga b2 ag|"tr"f2 ed gecf|dBGc {B}A2 ga|bfce|G2 BA|B2 B,4:|

